22x22/apps/lutris_soma.svg

<svg width="22" height="22" version="1.1" xmlns="http://www.w3.org/2000/svg">
 <g transform="translate(-.99155741 -1)">
  <path d="m12.000125 2.5a9.9998752 10 0 0 0-9.9998756 10 9.9998752 10 0 0 0 9.9998756 10 9.9998752 10 0 0 0 0.426752-0.01465c0.02469 0.0079 0.04911 0.01465 0.07324 0.01465 0.999989 0 9.499883-0.5 9.499883-9.5 0-8.5-6.499919-10.5-7.499907-10.5-0.152044 0-0.366731 0.0658567-0.613273 0.1884765a9.9998752 10 0 0 0-1.886695-0.1884765z" style="opacity:.2"/>
  <path d="M 12.000125,2 A 9.9998752,10 0 0 0 2.0002494,12 9.9998752,10 0 0 0 12.000125,22 9.9998752,10 0 0 0 12.497189,21.98242 L 11.000137,14 14.0001,2.5 15.705156,2.7197265 A 9.9998752,10 0 0 0 12.000125,2 Z" style="fill:#365849"/>
  <path d="M 12.000125,2 A 9.9998752,10 0 0 0 2.0002494,12 9.9998752,10 0 0 0 2.0109915,12.208985 9.9998752,10 0 0 1 12.000125,2.5 9.9998752,10 0 0 1 13.947366,2.703125 L 14.0001,2.5 15.705156,2.7197265 A 9.9998752,10 0 0 0 12.000125,2 Z M 11.054824,14.291016 11.000137,14.5 l 1.40428,7.485351 a 9.9998752,10 0 0 0 0.09277,-0.0029 z" style="fill:#f4f4f7;opacity:.1"/>
  <path d="m14.500093 2.5c-0.06621 0-0.144079 0.012657-0.230466 0.035156l1.071276 0.1376953c-0.381196-0.1157878-0.683952-0.1728513-0.84081-0.1728513zm-0.539055 0.1513672c-1.356922 0.6234569-3.960888 3.3074723-3.960888 9.3486328 0 3.024465 1.059295 8.368563 1.991186 10a9.9998752 10 0 0 0 0.0088 0 9.9998752 10 0 0 0 0.497064-0.01758l-1.497063-7.98242z" style="opacity:.2"/>
  <path d="m6.4609375 2.4804738a1.50015 1.50015 0 0 0-1.3398437 2.1113281s0.4668402 1.0577883 1.6464843 2.7617187c0.7361392 1.0633121 1.8378401 2.460094 3.2753909 4.0839844-2.0299166-0.198045-3.2458119-0.883765-4.0058596-1.5332031-0.9251615-0.7905231-1.126953-1.4179688-1.1269532-1.4179688a1.50015 1.50015 0 0 0-1.3632812-1.0058593 1.50015 1.50015 0 0 0-1.4570312 2.0332031s0.5482083 1.4310781 1.9980468 2.6699221c1.3619875 1.163778 3.6702537 2.161546 6.8925784 2.234375-0.04952-0.01234 0.636193 0.355549 1.162109 0.68164 0.459029 0.284619 0.744179 0.469256 0.871094 0.550782a1.50015 1.50015 0 0 0 0.710937 0.345703 1.50015 1.50015 0 0 0 0.0098 2e-3 1.50015 1.50015 0 0 0 1.765591-1.839891v-0.658203a1.50015 1.50015 0 0 0-0.439453-1.060547c-2.941075-2.9410742-4.757769-5.2468991-5.8281251-6.7929686-1.0703559-1.5460696-1.3535155-2.2382813-1.3535157-2.2382813a1.50015 1.50015 0 0 0-1.4179687-0.9277343z" style="opacity:.2"/>
  <path d="m6.4609375 1.9804688a1.50015 1.50015 0 0 0-1.3398437 2.1113281s0.4668402 1.0577883 1.6464843 2.7617187c0.7361392 1.0633121 1.8378401 2.460094 3.2753909 4.0839844-2.0299166-0.198045-3.2458119-0.883765-4.0058596-1.5332031-0.9251615-0.7905231-1.126953-1.4179688-1.1269532-1.4179688a1.50015 1.50015 0 0 0-1.3632812-1.0058593 1.50015 1.50015 0 0 0-1.4570312 2.0332031s0.5482083 1.4310781 1.9980468 2.6699221c1.3619875 1.163778 3.6702537 2.161546 6.8925784 2.234375-0.04952-0.01234 0.636193 0.355549 1.162109 0.68164 0.459029 0.284619 0.744179 0.469256 0.871094 0.550782a1.50015 1.50015 0 0 0 0.710937 0.345703 1.50015 1.50015 0 0 0 0.0098 2e-3 1.50015 1.50015 0 0 0 1.765591-1.839891v-0.658203a1.50015 1.50015 0 0 0-0.439453-1.060547c-2.941075-2.9410742-4.757769-5.2468991-5.8281251-6.7929686-1.0703559-1.5460696-1.3535155-2.2382813-1.3535157-2.2382813a1.50015 1.50015 0 0 0-1.4179687-0.9277343z" style="fill:#786764"/>
  <path d="m6.4609375 1.9804688a1.50015 1.50015 0 0 0-1.4472656 1.7480468 1.50015 1.50015 0 0 1 1.4472656-1.2480468 1.50015 1.50015 0 0 1 1.4179687 0.9277343c2e-7 0 0.2831598 0.6922117 1.3535157 2.2382813 1.0703561 1.5460695 2.8870501 3.8518945 5.8281251 6.7929686a1.50015 1.50015 0 0 1 0.439453 1.060547v-0.5a1.50015 1.50015 0 0 0-0.439453-1.060547c-2.941075-2.9410737-4.757769-5.2468991-5.8281251-6.7929686-1.0703559-1.5460696-1.3535155-2.2382813-1.3535157-2.2382813a1.50015 1.50015 0 0 0-1.4179687-0.9277343zm-2.9140625 5a1.50015 1.50015 0 0 0-1.5332031 1.7480468 1.50015 1.50015 0 0 1 1.5332031-1.2480468 1.50015 1.50015 0 0 1 1.3632812 1.0058593c2e-7 0 0.2017917 0.6274457 1.1269532 1.4179688 0.7600477 0.6494381 1.9759428 1.3351581 4.0058596 1.5332031-0.1795263-0.202797-0.3056172-0.366994-0.4746096-0.5625-1.7435587-0.251921-2.8334268-0.874434-3.53125-1.4707031-0.9251615-0.7905231-1.126953-1.4179688-1.1269532-1.4179688a1.50015 1.50015 0 0 0-1.3632812-1.0058593zm11.953125 6.6777342v0.5a1.50015 1.50015 0 0 1 0.02539 0.126953 1.50015 1.50015 0 0 0-0.02539-0.626953z" style="fill:#f4f4f7;opacity:.1"/>
  <path d="m 14.500093,2 c -0.999987,0 -4.499943,2.5 -4.499943,9.5 0,3.597839 1.499981,10.5 2.499968,10.5 C 13.500106,22 22,21.5 22,12.5 22,4 15.500081,2 14.500093,2 Z" style="fill:#afd1dc"/>
  <path d="m12.000125 11.5s0 3.5 0.999987 3.5c0.499994 0 0.999988-0.5 0.999988-0.5v2s0 0.5 0.499993 0.5c0.499994 0 0.499994-0.5 0.499994-0.5v-1.5s0.999919 1 1.499913 1c0.499993 0 1.500003-2 1.500003-2s0 0.5 0.499994 0.5c0.999987 0 0.50004-3 0.50004-3z" style="fill:#2a3054"/>
  <path d="m11.999988 11.5-0.999988-1.5s2.454686-2 4-2c3.499956 0 3.9999 3.5 3.9999 3.5z" style="fill:#17191e"/>
  <path d="m15.500016 9.5c-2.333304 0-3.447224 2.276367-3.447224 2.276367-0.07039 0.14078-0.07039 0.306486 0 0.447266 0 0 1.113918 2.276367 3.447224 2.276367 2.333302 0 3.447219-2.276367 3.447219-2.276367 0.07039-0.14078 0.07039-0.306486 0-0.447266 0 0-1.113917-2.276367-3.447219-2.276367z" style="opacity:.1"/>
  <path d="m15.5 9c-2.333294 0-3.447208 2.276367-3.447208 2.276367-0.07039 0.14078-0.07039 0.306486 0 0.447266 0 0 1.113914 2.276367 3.447208 2.276367 2.333293 0 3.447207-2.276367 3.447207-2.276367 0.07039-0.14078 0.07039-0.306486 0-0.447266 0 0-1.113914-2.276367-3.447207-2.276367z" style="fill:#f4f4f7"/>
  <circle cx="15.5" cy="12" r="1.5" style="opacity:.1"/>
  <circle cx="15.5" cy="11.5" r="1.5" style="fill:#786764"/>
  <circle cx="15.5" cy="11.5" r=".5" style="fill:#17191e"/>
  <path d="m21.485358 12.5c-0.170453 0.0052-0.32653 0.09681-0.414058 0.243164l-2.999962 5c-0.08783 0.146478-0.09483 0.327653-0.01855 0.480469 0 0 0.613924 1.276367 1.947241 1.276367 0.416662 0 0.805131-0.239862 1.056628-0.575196 0.251496-0.335332 0.419194-0.765666 0.553704-1.30371 0.269014-1.07609 0.389639-2.60026 0.389639-4.621094 9.2e-5 -0.281953-0.232813-0.508232-0.514642-0.5z" style="opacity:.1"/>
  <path d="m21.485358 12c-0.170453 0.0052-0.32653 0.09681-0.414058 0.243164l-2.999962 5c-0.08783 0.146478-0.09483 0.327653-0.01855 0.480469 0 0 0.613924 1.276367 1.947241 1.276367 0.416662 0 0.805131-0.239862 1.056628-0.575196 0.251496-0.335332 0.419194-0.765666 0.553704-1.30371 0.269014-1.07609 0.389639-2.60026 0.389639-4.621094 9.2e-5 -0.281953-0.232813-0.508232-0.514642-0.5z" style="fill:#78b2a1"/>
  <path d="m 14.500093,2 c -0.999987,0 -4.499943,2.5 -4.499943,9.5 0,0.08803 0.0051,0.186483 0.0068,0.278321 C 10.082406,4.9529605 13.511104,2.5 14.500093,2.5 c 0.988853,0 7.351392,1.9599104 7.493071,10.222656 C 21.99438,12.647445 22,12.576432 22,12.5 22,4 15.500081,2 14.500093,2 Z" style="fill:#f4f4f7;opacity:.2"/>
  <path d="m21.485358 12c-0.170453 0.0052-0.32653 0.09681-0.414058 0.243164l-2.999962 5c-0.08783 0.146478-0.09483 0.327653-0.01855 0.480469 0 0 0.01427 0.02366 0.01563 0.02637 0.0012-0.0022 0.0016-0.0047 0.0029-0.0068l2.999962-5c0.08751-0.146355 0.243585-0.238013 0.414038-0.243163 0.268631-0.0078 0.486501 0.199486 0.506829 0.462891 0.001651-0.157854 0.007853-0.298572 0.007853-0.462931 9.2e-5 -0.281953-0.232813-0.508232-0.514642-0.5z" style="fill:#f4f4f7;opacity:.1"/>
 </g>
</svg>

<svg width="22" height="22" xmlns="http://www.w3.org/2000/svg"><g transform="translate(-.992 -1)"><path d="M12 2.5a10 10 0 0 0-10 10 10 10 0 0 0 10 10 10 10 0 0 0 .427-.015c.025.008.049.015.073.015 1 0 9.5-.5 9.5-9.5 0-8.5-6.5-10.5-7.5-10.5-.152 0-.367.066-.613.188A10 10 0 0 0 12 2.5z" style="opacity:.2"/><path d="M12 2A10 10 0 0 0 2 12a10 10 0 0 0 10 10 10 10 0 0 0 .497-.018L11 14l3-11.5 1.705.22A10 10 0 0 0 12 2z" style="fill:#365849"/><path d="M12 2A10 10 0 0 0 2 12a10 10 0 0 0 .011.209 10 10 0 0 1 9.99-9.709 10 10 0 0 1 1.946.203L14 2.5l1.705.22A10 10 0 0 0 12 2zm-.945 12.291L11 14.5l1.404 7.485a10 10 0 0 0 .093-.003z" style="fill:#f4f4f7;opacity:.1"/><path d="M14.5 2.5a.942.942 0 0 0-.23.035l1.07.138c-.38-.116-.683-.173-.84-.173zm-.539.151c-1.357.624-3.96 3.308-3.96 9.349 0 3.024 1.058 8.369 1.99 10a10 10 0 0 0 .01 0 10 10 0 0 0 .496-.018L11 14z" style="opacity:.2"/><path d="M6.46 2.48a1.5 1.5 0 0 0-1.339 2.112s.467 1.058 1.647 2.762c.736 1.063 1.837 2.46 3.275 4.084-2.03-.199-3.246-.884-4.006-1.534-.925-.79-1.127-1.418-1.127-1.418A1.5 1.5 0 0 0 3.547 7.48 1.5 1.5 0 0 0 2.09 9.514s.548 1.43 1.998 2.67c1.362 1.163 3.67 2.161 6.892 2.234-.05-.012.637.356 1.163.682.459.284.744.469.87.55a1.5 1.5 0 0 0 .712.346 1.5 1.5 0 0 0 .01.002 1.5 1.5 0 0 0 1.765-1.84V13.5a1.5 1.5 0 0 0-.44-1.06c-2.94-2.942-4.757-5.247-5.828-6.794C8.162 4.1 7.88 3.408 7.88 3.408A1.5 1.5 0 0 0 6.46 2.48z" style="opacity:.2"/><path d="M6.46 1.98a1.5 1.5 0 0 0-1.339 2.112s.467 1.058 1.647 2.762c.736 1.063 1.837 2.46 3.275 4.083-2.03-.198-3.246-.883-4.006-1.533-.925-.79-1.127-1.418-1.127-1.418A1.5 1.5 0 0 0 3.547 6.98 1.5 1.5 0 0 0 2.09 9.014s.548 1.43 1.998 2.67c1.362 1.163 3.67 2.161 6.892 2.234-.05-.012.637.356 1.163.682.459.284.744.469.87.55a1.5 1.5 0 0 0 .712.346 1.5 1.5 0 0 0 .01.002 1.5 1.5 0 0 0 1.765-1.84V13a1.5 1.5 0 0 0-.44-1.06c-2.94-2.942-4.757-5.247-5.828-6.794C8.162 3.6 7.88 2.908 7.88 2.908A1.5 1.5 0 0 0 6.46 1.98z" style="fill:#786764"/><path d="M6.46 1.98A1.5 1.5 0 0 0 5.015 3.73 1.5 1.5 0 0 1 6.46 2.48a1.5 1.5 0 0 1 1.418.928s.283.692 1.353 2.238c1.07 1.547 2.887 3.852 5.829 6.793A1.5 1.5 0 0 1 15.5 13.5V13a1.5 1.5 0 0 0-.44-1.06c-2.94-2.942-4.757-5.247-5.828-6.794C8.162 3.6 7.88 2.908 7.88 2.908A1.5 1.5 0 0 0 6.46 1.98zm-2.913 5A1.5 1.5 0 0 0 2.014 8.73 1.5 1.5 0 0 1 3.547 7.48 1.5 1.5 0 0 1 4.91 8.486s.202.628 1.127 1.418c.76.65 1.976 1.335 4.006 1.534-.18-.203-.306-.367-.475-.563-1.743-.252-2.833-.874-3.53-1.47-.926-.791-1.128-1.419-1.128-1.419A1.5 1.5 0 0 0 3.547 6.98zM15.5 13.658v.5a1.5 1.5 0 0 1 .025.127 1.5 1.5 0 0 0-.025-.627z" style="fill:#f4f4f7;opacity:.1"/><path d="M14.5 2c-1 0-4.5 2.5-4.5 9.5 0 3.598 1.5 10.5 2.5 10.5s9.5-.5 9.5-9.5C22 4 15.5 2 14.5 2z" style="fill:#afd1dc"/><path d="M12 11.5s0 3.5 1 3.5c.5 0 1-.5 1-.5v2s0 .5.5.5.5-.5.5-.5V15s1 1 1.5 1 1.5-2 1.5-2 0 .5.5.5c1 0 .5-3 .5-3z" style="fill:#2a3054"/><path d="M12 11.5 11 10s2.455-2 4-2c3.5 0 4 3.5 4 3.5z" style="fill:#17191e"/><path d="M15.5 9.5c-2.333 0-3.447 2.276-3.447 2.276a.5.5 0 0 0 0 .448S13.167 14.5 15.5 14.5s3.447-2.276 3.447-2.276a.5.5 0 0 0 0-.448S17.833 9.5 15.5 9.5z" style="opacity:.1"/><path d="M15.5 9c-2.333 0-3.447 2.276-3.447 2.276a.5.5 0 0 0 0 .448S13.167 14 15.5 14s3.447-2.276 3.447-2.276a.5.5 0 0 0 0-.448S17.833 9 15.5 9z" style="fill:#f4f4f7"/><circle cx="15.5" cy="12" r="1.5" style="opacity:.1"/><circle cx="15.5" cy="11.5" r="1.5" style="fill:#786764"/><circle cx="15.5" cy="11.5" r=".5" style="fill:#17191e"/><path d="M21.485 12.5a.5.5 0 0 0-.414.243l-3 5a.5.5 0 0 0-.018.48S18.667 19.5 20 19.5c.417 0 .805-.24 1.057-.575.251-.336.419-.766.553-1.304.27-1.076.39-2.6.39-4.621a.5.5 0 0 0-.515-.5z" style="opacity:.1"/><path d="M21.485 12a.5.5 0 0 0-.414.243l-3 5a.5.5 0 0 0-.018.48S18.667 19 20 19c.417 0 .805-.24 1.057-.575.251-.336.419-.766.553-1.304.27-1.076.39-2.6.39-4.621a.5.5 0 0 0-.515-.5z" style="fill:#78b2a1"/><path d="M14.5 2c-1 0-4.5 2.5-4.5 9.5 0 .088.005.186.007.278C10.082 4.953 13.51 2.5 14.5 2.5c.989 0 7.351 1.96 7.493 10.223.001-.076.007-.147.007-.223C22 4 15.5 2 14.5 2z" style="fill:#f4f4f7;opacity:.2"/><path d="M21.485 12a.5.5 0 0 0-.414.243l-3 5a.5.5 0 0 0-.003.507c.002-.002.002-.005.003-.007l3-5a.496.496 0 0 1 .92.22c.003-.158.009-.299.009-.463a.5.5 0 0 0-.515-.5z" style="fill:#f4f4f7;opacity:.1"/></g></svg>
